public/assets/images/icons/blue/visibility-visible/campusnavi.svg

<svg width="16" height="16" xmlns="http://www.w3.org/2000/svg" viewBox="0 0 16 16" shape-rendering="geometricPrecision" fill="#24437c"><defs><mask id="a"><rect fill="#fff" width="100%" height="100%"/><path d="M12.997.858a4.809 4.809 0 0 0-4.253 2.563 4.81 4.81 0 0 0 8.506 0A4.812 4.812 0 0 0 12.997.858z" fill="#000"/></mask></defs><path d="M12.971 1.607c-1.315 0-2.454.74-3.029 1.825a3.425 3.425 0 0 0 6.058 0 3.43 3.43 0 0 0-3.029-1.825z" fill="#cb1800"/><g mask="url(#a)"><path d="M4.271 11.728l4.866-2.562L11.699 4.3 6.833 6.863l-2.562 4.865zm2.958-4.469a1.068 1.068 0 1 1 1.512 1.512 1.068 1.068 0 1 1-1.512-1.512z"/><path d="M8.001 1.01a6.99 6.99 0 0 0 0 13.979 6.99 6.99 0 0 0 0-13.979zm1.144 12.445L8 12.31l-1.145 1.145a5.588 5.588 0 0 1-4.31-4.309L3.69 8 2.546 6.855a5.588 5.588 0 0 1 4.309-4.31L8 3.69l1.145-1.145a5.59 5.59 0 0 1 4.31 4.31L12.31 8l1.146 1.146a5.585 5.585 0 0 1-4.311 4.309z"/></g></svg>

<?xml version="1.0"?><!DOCTYPE svg PUBLIC "-//W3C//DTD SVG 1.1//EN" "http://www.w3.org/Graphics/SVG/1.1/DTD/svg11.dtd"><svg width="16px" height="16px" xmlns="http://www.w3.org/2000/svg" viewBox="0 0 16 16" shape-rendering="geometricPrecision" fill="#24437c"><defs><mask id="visibility-visible-path"><rect fill="#fff" width="100%" height="100%"/><path d="M12.997,0.858c-1.845,0-3.446,1.039-4.253,2.563c0.808,1.523,2.408,2.562,4.253,2.562 c1.844,0,3.444-1.039,4.253-2.562C16.441,1.897,14.841,0.858,12.997,0.858z" fill="#000"/></mask></defs><path display="inline" d="M12.971,1.607c-1.315,0-2.454,0.74-3.029,1.825 c0.575,1.085,1.715,1.825,3.029,1.825c1.314,0,2.453-0.74,3.029-1.825C15.424,2.348,14.284,1.607,12.971,1.607z" fill="#cb1800"/><g mask="url(#visibility-visible-path)"><g><path d="M4.271,11.728l4.866-2.562l2.562-4.866L6.833,6.863L4.271,11.728z M7.229,7.259c0.418-0.418,1.095-0.418,1.512,0 c0.418,0.418,0.418,1.095,0,1.512c-0.418,0.418-1.095,0.418-1.512,0C6.811,8.353,6.811,7.676,7.229,7.259z"/><path d="M8.001,1.01c-3.861,0-6.99,3.13-6.99,6.993c0,3.858,3.13,6.985,6.99,6.986c3.86-0.002,6.987-3.129,6.989-6.986 C14.99,4.14,11.861,1.01,8.001,1.01z M9.145,13.455L8,12.31l-1.145,1.145c-2.159-0.454-3.857-2.152-4.31-4.309L3.69,8 L2.546,6.855C3,4.696,4.697,2.999,6.855,2.545L8,3.69l1.145-1.145C11.303,2.998,13,4.696,13.455,6.855L12.31,8l1.146,1.146 C13.003,11.304,11.305,13.002,9.145,13.455z"/></g></g></svg>
